X:65
T:Sonatina in C Major
C:Beethoven
N:TablEdited by Jim Nikora
L:1/8
Q:1/4=60
M:2/4
K:C
|: C/E/G/c/ e/g/c'/g/ | a/f/c'/a/ g/e/c'/g/ | f/d/g/f/ e/c/g/e/ | d/c/B/A/ G/F/E/D/ | 
C/E/G/c/ e/g/c'/g/ | a/f/c'/a/ g/e/c'/g/ | f/a/g/f/ e/d/c/B/ | c/G/E/G/ CG, | 
G,/B,/D/G/ B/d/g/f/ | e/d/c/B/ c/d/e/c/ | B/G/^F/G/ B/d/g/f/ | e/d/c/B/ c/d/e/^f/ | 
g/^f/a/f/ g/f/a/f/ | g/f/d/B/ G/F/D/B,/ | C/E/G/c/ e/g/c'/g/ | a/f/c'/a/ g/e/c'/g/ | 
f/a/g/f/ e/d/c/B/ |1 c/G/E/G/ Cc/d/ | ef/e/ de/d/ | cd/c/ Bc/B/ | AB/A/ GA/G/ | 
^F3D | D3E/^F/ | GA Bc | dd e/d/^c/d/ | B2 G2 | ^FF G/F/E/F/ | G/^F/E/D/ C/B,/A,/G,/ | 
A,C2A, | G,3D | D3E/^F/ | GA Bc | dd e/d/^c/d/ | B2 G2 | ^FF G/F/E/F/ | G/D/G/B/ d/c/B/A/ | 
^GG A/G/^F/G/ | A/E/A/c/ e/d/c/B/ | _BB =B/_B/^G/B/ | B^c dB | cd e^c | de fg | 
ag fe | dc BA | GF ED :|2 c/G/E/G/ Cg | 
K:Eb
g3e/c/ | =B4 | g3e/c/ | =B4 | g3e/c/ | c'3a/f/ | dd dd | e3G | gg2e/c/ | =B4 | 
_g/=g/_g/=g/ f/e/d/c/ | =B4 | gg2e/c/ | c'c'2a/f/ | dd dd | e3b | b3g/f/ | =e4 | 
fc'2a/g/ | _g4 | ga2g/f/ | ee2d/c/ | [=BD][BD] [BD][BD] | [c3=E3]G, :| 
K:C
|3 cg/c/ a/c/F/c/ | E/c/g/c/ f/B/D/B/ | C/c/e/c/ a/c/F/c/ | E/c/g/c/ f/B/D/B/ | 
C/c/e/c/ a/c/F/c/ | F/d/b/d/ c'/^d/^F/d/ | c'/b/c'/b/ c'e | ad fB | c3G | G3A/B/ | 
cd ef | gg a/g/^f/g/ | e2 cG | G3A/B/ | cd e^f | gg g/f/e/d/ | c/e/g/e/ d/f/B/d/ | 
c/G/E/C/ D/F/B/d/ | c/e/g/e/ d/f/B/d/ | c/G/E/C/ D/F/B,/D/ | C/G,/C/E/ c/e/g/e/ | 
[c4E4G,4] | z4 | z4 | z4 | z4 | z4 | z4 | z4 | z4 | z4 | z4 | z4 | z4 | z4 | z4 | 
 

